X: 5977
T: Camptown Races
R: polka
M: 2/4
K: Amajor
|:ef/e/ ce|fe c/B/A/B/|cB BA/B/|cB Bc|
ef/e/ ce|fe ce/c/|B/c/B/A/ cB|1 A2 Ac:|2 Ad cB||
|:A>B ce|a2 ag|fd/f/ af|e2 ec/e/|
fe ce|fe ce/c/|B/c/B/A/ cB|1 Ad cB:|2 A2 Ac||

